**kern	**kern	**dynam
*part1	*part1	*part1
*staff2	*staff1	*
*I"Piano	*	*
*clefF4	*clefG2	*
*k[b-e-a-d-]	*k[b-e-a-d-]	*
=1	=1	=1
*^	*^	*
4F	4D-	2g	2g	.
2E-	2C	.	.	.
.	.	4an	4g-X	.
=	=	=	=	=
!	!	!	!	!LO:DY:a
4F	2.D-	2b-	4f	<
2Gn	.	.	2f-X	.
.	.	4b-	.	.
=	=	=	=	=
4A-	2C	4.b-	2.e-	.
2E-	.	.	.	.
.	.	8a-	.	.
.	4C-X	4ee-	.	.
=	=	=	=	=
!	!	!	!	!LO:DY:a
(4BB-	2.BB-	(2ee-	2.f 2.a-	[ mf
4F	.	.	.	.
4A-	.	4ddn)	.	.
*	*	*v	*v	*
=	=	=	=
4c-X	2.rF	2.r	.
4B-	.	.	.
[4A-)	.	.	.
=	=	=	=
4A-]	2.rF	4c-X	.
4G	.	4B-	.
4F	.	4A-	.
=	=	=	=
!	!	!LO:TX:a:i:t=cresc.	!
(4E- 4G	2EE-	2e-	.
4F 4A-	.	.	.
4G 4B-	4EE-	4e-	.
=	=	=	=
4A- 4c-X	2AAA- 2AA-	2e-	.
4B- 4d-	.	.	.
4c-) 4e-	4AAA- 4AA-	4e-	.
*v	*v	*	*
=	=	=
*-	*-	*-
!!!system-decoration: {(s1,s2)}
